img/skill_Arduino.svg

<?xml version="1.0" encoding="UTF-8" standalone="no"?>
<svg
   width="161.8403"
   height="77.519485"
   viewBox="0 0 161.8403 77.519485"
   fill="none"
   version="1.1"
   id="svg26"
   sodipodi:docname="skill_Arduino.svg"
   inkscape:version="1.1.2 (0a00cf5339, 2022-02-04)"
   xmlns:inkscape="http://www.inkscape.org/namespaces/inkscape"
   xmlns:sodipodi="http://sodipodi.sourceforge.net/DTD/sodipodi-0.dtd"
   xmlns="http://www.w3.org/2000/svg"
   xmlns:svg="http://www.w3.org/2000/svg">
  <defs
     id="defs30" />
  <sodipodi:namedview
     id="namedview28"
     pagecolor="#ffffff"
     bordercolor="#666666"
     borderopacity="1.0"
     inkscape:pageshadow="2"
     inkscape:pageopacity="0.0"
     inkscape:pagecheckerboard="0"
     showgrid="false"
     fit-margin-top="0"
     fit-margin-left="0"
     fit-margin-right="0"
     fit-margin-bottom="0"
     inkscape:zoom="3.7706422"
     inkscape:cx="30.631387"
     inkscape:cy="43.626521"
     inkscape:window-width="1871"
     inkscape:window-height="1056"
     inkscape:window-x="49"
     inkscape:window-y="24"
     inkscape:window-maximized="1"
     inkscape:current-layer="svg26" />
  <path
     d="m 161.823,38.8862 c 0,-21.3444 -17.829,-38.545556 -39.819,-38.545556 -2.02,-0.05352 -4.042,0.054364 -6.045,0.322627 C 98.758,3.21033 87.2793,15.3174 80.9116,24.8773 74.544,15.3174 63.0822,3.21033 45.8471,0.663271 43.8439,0.394575 41.8225,0.286688 39.8021,0.340644 17.8464,0.340644 0,17.5418 0,38.8862 c 0,21.3443 17.8464,38.6304 39.819,38.6304 2.017,0.0249 4.0328,-0.1114 6.0281,-0.4076 17.2181,-2.547 28.6799,-14.654 35.0475,-24.197 6.3677,9.543 17.8464,21.65 35.0474,24.197 2.003,0.2683 4.025,0.3762 6.045,0.3227 21.667,-0.3226 39.819,-17.5238 39.819,-38.5455 z M 43.6396,63.4228 c -1.3656,0.2536 -2.7551,0.3561 -4.1432,0.3057 -14.3314,0 -26.1158,-11.1391 -26.1158,-24.8423 0,-13.7032 11.7844,-24.8424 26.4384,-24.8424 1.389,-0.0531 2.7793,0.0552 4.1433,0.3227 16.2502,2.2244 26.1158,18.152 29.3081,24.5197 -3.5149,6.3676 -13.3805,21.9896 -29.6308,24.5366 z M 88.2981,38.8862 c 3.3961,-6.3677 13.0069,-22.2953 29.2569,-24.5197 1.359,-0.2676 2.743,-0.3758 4.127,-0.3227 14.654,0 26.438,11.1392 26.438,24.8424 0,13.7032 -11.784,24.8423 -26.116,24.8423 -1.388,0.0504 -2.777,-0.0521 -4.143,-0.3057 -16.556,-2.547 -26.4385,-18.169 -29.5629,-24.5366 z"
     fill="#007481"
     id="path2" />
  <path
     d="M 52.2486,35.0657 H 28.3572 v 7.6412 h 23.8914 z"
     fill="#007481"
     id="path4" />
  <path
     d="m 124.551,42.7072 h 7.964 V 35.066 h -7.964 v -8.2865 h -7.964 v 8.2865 h -7.963 v 7.6412 h 7.963 v 8.2864 h 7.964 z"
     fill="#007481"
     id="path6" />
  <path
     d="M 161.484,2.6329 C 161.275,2.12581 160.969,1.66436 160.584,1.27447 160.195,0.891386 159.74,0.580863 159.242,0.357525 158.707,0.12176 158.129,0 157.544,0 c -0.585,0 -1.163,0.12176 -1.698,0.357525 -0.498,0.223338 -0.952,0.533861 -1.341,0.916945 -0.386,0.38989 -0.692,0.85134 -0.9,1.35843 -0.229,0.53681 -0.344,1.11475 -0.34,1.69804 0.007,1.14825 0.457,2.24952 1.257,3.07345 0.389,0.37787 0.844,0.6827 1.341,0.89996 0.535,0.23577 1.113,0.35753 1.698,0.35753 0.585,0 1.163,-0.12176 1.698,-0.35753 0.498,-0.21726 0.952,-0.52209 1.342,-0.89996 0.382,-0.39909 0.687,-0.86539 0.899,-1.37541 0.232,-0.53593 0.347,-1.11447 0.34,-1.69804 0.007,-0.58532 -0.115,-1.16503 -0.356,-1.69804 z m -0.934,3.00553 c -0.155,0.39625 -0.393,0.75509 -0.697,1.05279 -0.297,0.29711 -0.641,0.54372 -1.018,0.73015 -0.39,0.17581 -0.812,0.26834 -1.24,0.27169 -0.439,-0.00161 -0.872,-0.09412 -1.274,-0.27169 -0.382,-0.17806 -0.727,-0.42566 -1.018,-0.73015 -0.294,-0.3029 -0.525,-0.66065 -0.68,-1.05279 -0.174,-0.41366 -0.26,-0.85878 -0.254,-1.30749 -0.001,-0.45376 0.085,-0.90344 0.254,-1.32447 0.159,-0.39514 0.39,-0.75774 0.68,-1.06977 0.288,-0.29966 0.635,-0.53666 1.018,-0.6962 0.403,-0.1722 0.836,-0.25894 1.274,-0.254701 0.426,-0.0025 0.849,0.084261 1.24,0.254701 0.379,0.16791 0.724,0.40387 1.018,0.6962 0.301,0.30695 0.538,0.67059 0.697,1.06977 0.169,0.42103 0.255,0.87071 0.254,1.32447 0.006,0.44871 -0.08,0.89383 -0.254,1.30749 z"
     fill="#007481"
     id="path8" />
  <path
     d="m 158.512,4.75548 c 0.231,-0.11325 0.426,-0.28992 0.561,-0.50941 0.125,-0.21663 0.189,-0.46299 0.186,-0.71318 0.003,-0.3931 -0.15,-0.77136 -0.424,-1.05278 -0.411,-0.33233 -0.935,-0.4908 -1.461,-0.44149 h -0.696 -0.594 v 4.22812 h 1.07 v -1.3924 h 0.441 l 0.747,1.3924 h 1.274 z m -1.07,-0.57733 H 157.12 V 3.04046 h 0.356 c 0.459,0 0.68,0.20377 0.68,0.6113 0,0.40753 -0.238,0.52639 -0.714,0.52639 z"
     fill="#007481"
     id="path10" />
  <path
     d="m 14.2731,108.591 1.1566,-4.662 h 6.5538 l 1.2618,4.662 h 5.9931 L 21.9835,85.8098 H 15.6399 L 8.49023,108.591 Z m 6.5539,-9.0425 h -4.3109 l 2.0678,-8.3414 z"
     fill="#007481"
     id="path12" />
  <path
     d="m 31.0822,108.591 h 5.6427 v -7.22 h 2.8388 l 3.4347,7.22 h 6.659 l -4.451,-8.342 c 2.4884,-1.3314 3.7501,-3.7146 3.7501,-6.8339 0,-4.3809 -2.3833,-7.6053 -8.6918,-7.6053 h -9.1825 z m 8.6217,-11.7412 h -2.979 V 90.401 h 2.8739 c 2.6285,0 3.3645,1.0164 3.3645,3.0492 0,2.5234 -1.2967,3.3996 -3.2594,3.3996 z"
     fill="#007481"
     id="path14" />
  <path
     d="m 51.7466,108.591 h 7.5002 c 9.6731,0 11.3203,-6.204 11.3203,-11.601 0,-7.1497 -2.8388,-11.1802 -11.3554,-11.1802 h -7.4651 z m 7.2899,-18.19 c 5.0468,0 5.5024,2.3833 5.5024,6.8343 0,3.8557 -0.3504,6.6937 -5.0118,6.6937 H 57.3892 V 90.401 Z"
     fill="#007481"
     id="path16" />
  <path
     d="m 85.4837,99.7237 c 0,3.4693 -0.9463,4.6263 -3.5048,4.6263 -2.1379,0 -3.4697,-0.876 -3.4697,-4.6614 V 85.8098 H 72.8666 V 100.74 c 0,6.904 4.9767,8.201 8.867,8.201 4.0305,0 9.1825,-1.437 9.1825,-8.166 V 85.8098 h -5.4324 z"
     fill="#007481"
     id="path18" />
  <path
     d="m 94.1968,108.591 h 17.4542 v -4.662 h -5.924 V 90.4711 h 5.924 V 85.8098 H 94.1968 v 4.6613 h 5.8882 v 13.4579 h -5.8882 z"
     fill="#007481"
     id="path20" />
  <path
     d="m 119.838,94.0109 7.781,14.5801 h 5.712 V 85.8098 h -5.257 v 13.6686 l -7.395,-13.6686 h -6.133 v 22.7812 h 5.327 z"
     fill="#007481"
     id="path22" />
  <path
     d="m 144.848,85.4944 c -6.904,0 -9.533,5.0819 -9.533,11.9512 0,7.5354 3.014,11.4954 9.568,11.4954 7.325,0 9.743,-5.152 9.743,-11.7407 0,-8.6918 -3.294,-11.7059 -9.778,-11.7059 z m 0.035,18.8556 c -3.259,0 -3.575,-2.313 -3.575,-6.9044 0,-5.5726 0.526,-7.36 3.54,-7.36 3.33,0 3.785,1.5421 3.785,7.1147 0,5.2567 -0.455,7.1497 -3.75,7.1497 z"
     fill="#007481"
     id="path24" />
</svg>

<svg width="162" height="109" viewBox="0 0 162 109" fill="none" xmlns="http://www.w3.org/2000/svg">
<path d="M161.823 38.8862C161.823 17.5418 143.994 0.340644 122.004 0.340644C119.984 0.287124 117.962 0.395008 115.959 0.663271C98.758 3.21033 87.2793 15.3174 80.9116 24.8773C74.544 15.3174 63.0822 3.21033 45.8471 0.663271C43.8439 0.394575 41.8225 0.286688 39.8021 0.340644C17.8464 0.340644 0 17.5418 0 38.8862C0 60.2305 17.8464 77.5166 39.819 77.5166C41.836 77.5415 43.8518 77.4052 45.8471 77.109C63.0652 74.562 74.527 62.455 80.8946 52.912C87.2623 62.455 98.741 74.562 115.942 77.109C117.945 77.3773 119.967 77.4852 121.987 77.4317C143.654 77.1091 161.806 59.9079 161.806 38.8862H161.823ZM43.6396 63.4228C42.274 63.6764 40.8845 63.7789 39.4964 63.7285C25.165 63.7285 13.3806 52.5894 13.3806 38.8862C13.3806 25.183 25.165 14.0438 39.819 14.0438C41.208 13.9907 42.5983 14.099 43.9623 14.3665C60.2125 16.5909 70.0781 32.5185 73.2704 38.8862C69.7555 45.2538 59.8899 60.8758 43.6396 63.4228ZM88.2981 38.8862C91.6942 32.5185 101.305 16.5909 117.555 14.3665C118.914 14.0989 120.298 13.9907 121.682 14.0438C136.336 14.0438 148.12 25.183 148.12 38.8862C148.12 52.5894 136.336 63.7285 122.004 63.7285C120.616 63.7789 119.227 63.6764 117.861 63.4228C101.305 60.8758 91.4225 45.2538 88.2981 38.8862Z" fill="#007481"/>
<path d="M52.2486 35.0657H28.3572V42.7069H52.2486V35.0657Z" fill="#007481"/>
<path d="M124.551 42.7072H132.515V35.066H124.551V26.7795H116.587V35.066H108.624V42.7072H116.587V50.9936H124.551V42.7072Z" fill="#007481"/>
<path d="M161.484 2.6329C161.275 2.12581 160.969 1.66436 160.584 1.27447C160.195 0.891386 159.74 0.580863 159.242 0.357525C158.707 0.12176 158.129 0 157.544 0C156.959 0 156.381 0.12176 155.846 0.357525C155.348 0.580863 154.894 0.891386 154.505 1.27447C154.119 1.66436 153.813 2.12581 153.605 2.6329C153.376 3.16971 153.261 3.74765 153.265 4.33094C153.272 5.47919 153.722 6.58046 154.522 7.40439C154.911 7.78226 155.366 8.08709 155.863 8.30435C156.398 8.54012 156.976 8.66188 157.561 8.66188C158.146 8.66188 158.724 8.54012 159.259 8.30435C159.757 8.08709 160.211 7.78226 160.601 7.40439C160.983 7.0053 161.288 6.539 161.5 6.02898C161.732 5.49305 161.847 4.91451 161.84 4.33094C161.847 3.74562 161.725 3.16591 161.484 2.6329ZM160.55 5.63843C160.395 6.03468 160.157 6.39352 159.853 6.69122C159.556 6.98833 159.212 7.23494 158.835 7.42137C158.445 7.59718 158.023 7.68971 157.595 7.69306C157.156 7.69145 156.723 7.59894 156.321 7.42137C155.939 7.24331 155.594 6.99571 155.303 6.69122C155.009 6.38832 154.778 6.03057 154.623 5.63843C154.449 5.22477 154.363 4.77965 154.369 4.33094C154.368 3.87718 154.454 3.4275 154.623 3.00647C154.782 2.61133 155.013 2.24873 155.303 1.9367C155.591 1.63704 155.938 1.40004 156.321 1.2405C156.724 1.0683 157.157 0.98156 157.595 0.985799C158.021 0.983299 158.444 1.07006 158.835 1.2405C159.214 1.40841 159.559 1.64437 159.853 1.9367C160.154 2.24365 160.391 2.60729 160.55 3.00647C160.719 3.4275 160.805 3.87718 160.804 4.33094C160.81 4.77965 160.724 5.22477 160.55 5.63843Z" fill="#007481"/>
<path d="M158.512 4.75548C158.743 4.64223 158.938 4.46556 159.073 4.24607C159.198 4.02944 159.262 3.78308 159.259 3.53289C159.262 3.13979 159.109 2.76153 158.835 2.48011C158.424 2.14778 157.9 1.98931 157.374 2.03862H156.678H156.084V6.26674H157.154V4.87434H157.595L158.342 6.26674H159.616L158.512 4.75548ZM157.442 4.17815H157.12V3.04046H157.476C157.935 3.04046 158.156 3.24423 158.156 3.65176C158.156 4.05929 157.918 4.17815 157.442 4.17815Z" fill="#007481"/>
<path d="M14.2731 108.591L15.4297 103.929H21.9835L23.2453 108.591H29.2384L21.9835 85.8098H15.6399L8.49023 108.591H14.2731ZM20.827 99.5485H16.5161L18.5839 91.2071L20.827 99.5485Z" fill="#007481"/>
<path d="M31.0822 108.591H36.7249V101.371H39.5637L42.9984 108.591H49.6574L45.2064 100.249C47.6948 98.9176 48.9565 96.5344 48.9565 93.4151C48.9565 89.0342 46.5732 85.8098 40.2647 85.8098H31.0822V108.591ZM39.7039 96.8498H36.7249V90.401H39.5988C42.2273 90.401 42.9633 91.4174 42.9633 93.4502C42.9633 95.9736 41.6666 96.8498 39.7039 96.8498Z" fill="#007481"/>
<path d="M51.7466 108.591H59.2468C68.9199 108.591 70.5671 102.387 70.5671 96.99C70.5671 89.8403 67.7283 85.8098 59.2117 85.8098H51.7466V108.591ZM59.0365 90.401C64.0833 90.401 64.5389 92.7843 64.5389 97.2353C64.5389 101.091 64.1885 103.929 59.5271 103.929H57.3892V90.401H59.0365Z" fill="#007481"/>
<path d="M85.4837 99.7237C85.4837 103.193 84.5374 104.35 81.9789 104.35C79.841 104.35 78.5092 103.474 78.5092 99.6886V85.8098H72.8666V100.74C72.8666 107.644 77.8433 108.941 81.7336 108.941C85.7641 108.941 90.9161 107.504 90.9161 100.775V85.8098H85.4837V99.7237Z" fill="#007481"/>
<path d="M94.1968 108.591H111.651V103.929H105.727V90.4711H111.651V85.8098H94.1968V90.4711H100.085V103.929H94.1968V108.591Z" fill="#007481"/>
<path d="M119.838 94.0109L127.619 108.591H133.331V85.8098H128.074V99.4784L120.679 85.8098H114.546V108.591H119.873L119.838 94.0109Z" fill="#007481"/>
<path d="M144.848 85.4944C137.944 85.4944 135.315 90.5763 135.315 97.4456C135.315 104.981 138.329 108.941 144.883 108.941C152.208 108.941 154.626 103.789 154.626 97.2003C154.626 88.5085 151.332 85.4944 144.848 85.4944ZM144.883 104.35C141.624 104.35 141.308 102.037 141.308 97.4456C141.308 91.873 141.834 90.0856 144.848 90.0856C148.178 90.0856 148.633 91.6277 148.633 97.2003C148.633 102.457 148.178 104.35 144.883 104.35Z" fill="#007481"/>
</svg>
